; generated by PrusaSlicer 2.6.1+win64 on 2023-10-16 at 19:05:04 UTC


;
;

;
;
; 

; external perimeters extrusion width = 0.45mm
; perimeters extrusion width = 0.45mm
; infill extrusion width = 0.45mm
; solid infill extrusion width = 0.45mm
; top infill extrusion width = 0.40mm
; first layer extrusion width = 0.42mm

M73 P0 R3
;TYPE:Custom
G90 ; use absolute coordinates
M83 ; extruder relative mode
M104 S170 ; set extruder temp for bed leveling
M140 S60 ; set bed temp
M109 R170 ; wait for bed leveling temp
M190 S60 ; wait for bed temp
G28 ; home all without mesh bed level
G29 ; mesh bed leveling 
M104 S215 ; set extruder temp
G92 E0.0
G1 Y-2.0 X179 F2400
G1 Z3 F720
M109 S215 ; wait for extruder temp

; intro line
M73 P2 R3
G1 X170 F1000
G1 Z0.2 F720
G1 X110.0 E8.0 F900
G1 X40.0 E10.0 F700
G92 E0.0

M221 S95 ; set flow
G21 ; set units to millimeters
G90 ; use absolute coordinates
M83 ; use relative distances for extrusion
M900 K0.2 ; Filament gcode LA 1.5
; ; Filament gcode LA 1.0
M107
;LAYER_CHANGE
;Z:0.2
;HEIGHT:0.2
;BEFORE_LAYER_CHANGE
G92 E0.0
;0.2


M73 P4 R3
G1 E-3.2 F4200
M73 P7 R3
G1 Z.2 F9000
;AFTER_LAYER_CHANGE
;0.2
G1 Z.4
G1 X85.967 Y85.222
G1 Z.2
G1 E3.2 F2400
M204 S800
;TYPE:Skirt/Brim
;WIDTH:0.42
G1 F900
G1 X86.801 Y84.625 E.03216
G1 X88.079 Y84.05 E.04394
G1 X89.119 Y83.812 E.03345
G1 X90.653 Y83.783 E.04811
G1 X92.173 Y84.135 E.04892
M73 P8 R3
G1 X93.271 Y84.669 E.03828
G1 X94.337 Y85.51 E.04257
G1 X95.09 Y86.362 E.03565
G1 X95.64 Y87.3 E.03409
G1 X95.991 Y88.223 E.03096
G1 X96.214 Y89.311 E.03482
G1 X96.214 Y90.689 E.04321
G1 X95.852 Y92.213 E.04911
G1 X95.243 Y93.406 E.042
G1 X94.607 Y94.226 E.03254
G1 X93.559 Y95.112 E.04303
G1 X92.326 Y95.803 E.04432
G1 X91.176 Y96.139 E.03756
G1 X89.831 Y96.254 E.04233
G1 X88.966 Y96.17 E.02725
G1 X87.958 Y95.912 E.03262
G1 X86.75 Y95.339 E.04192
G1 X85.749 Y94.589 E.03922
G1 X84.987 Y93.739 E.03579
G1 X84.334 Y92.645 E.03995
G1 X83.897 Y91.32 E.04375
G1 X83.753 Y90.286 E.03273
G1 X83.803 Y89.152 E.03559
G1 X84.198 Y87.671 E.04806
G1 X84.655 Y86.759 E.03198
M73 P9 R3
G1 X85.135 Y86.064 E.02648
G1 X85.925 Y85.264 E.03525
M204 S1250
G1 X86.189 Y85.544 F9000
M204 S800
G1 F900
G1 X86.298 Y85.441 E.0047
G1 X86.993 Y84.949 E.0267
G1 X88.19 Y84.41 E.04116
G1 X89.156 Y84.187 E.03108
G1 X90.623 Y84.159 E.04601
G1 X92.038 Y84.486 E.04554
G1 X93.07 Y84.988 E.03598
G1 X94.058 Y85.764 E.03939
G1 X94.787 Y86.587 E.03447
G1 X95.295 Y87.451 E.03143
G1 X95.625 Y88.315 E.029
G1 X95.838 Y89.341 E.03286
G1 X95.838 Y90.659 E.04132
G1 X95.497 Y92.085 E.04597
G1 X94.932 Y93.192 E.03897
G1 X94.34 Y93.959 E.03038
G1 X93.32 Y94.82 E.04185
G1 X92.155 Y95.466 E.04177
G1 X91.097 Y95.771 E.03452
G1 X89.849 Y95.878 E.03927
G1 X89.022 Y95.797 E.02605
G1 X88.077 Y95.555 E.03059
G1 X86.959 Y95.025 E.03879
G1 X86.009 Y94.316 E.03717
G1 X85.298 Y93.525 E.03335
G1 X84.669 Y92.474 E.0384
M73 P10 R3
G1 X84.261 Y91.222 E.04129
G1 X84.129 Y90.255 E.0306
G1 X84.178 Y89.198 E.03318
G1 X84.543 Y87.822 E.04464
G1 X84.969 Y86.968 E.02992
G1 X85.626 Y86.075 E.03476
G1 X86.145 Y85.585 E.02238
M204 S1250
G1 X86.403 Y85.858 F9000
M204 S800
G1 F900
G1 X86.523 Y85.744 E.00519
G1 X87.186 Y85.273 E.0255
G1 X88.332 Y84.761 E.03936
G1 X89.193 Y84.562 E.02771
G1 X90.592 Y84.535 E.04387
G1 X91.902 Y84.838 E.04216
G1 X92.87 Y85.307 E.03373
G1 X93.78 Y86.018 E.03621
G1 X94.485 Y86.812 E.03329
G1 X94.949 Y87.602 E.02873
G1 X95.264 Y88.421 E.02751
G1 X95.462 Y89.372 E.03046
G1 X95.462 Y90.628 E.03938
G1 X95.142 Y91.958 E.04289
G1 X94.622 Y92.977 E.03587
G1 X94.073 Y93.693 E.02829
G1 X93.082 Y94.529 E.04065
G1 X92.034 Y95.108 E.03754
G1 X91.018 Y95.402 E.03316
G1 X89.868 Y95.501 E.03619
G1 X89.078 Y95.424 E.02489
G1 X88.196 Y95.197 E.02856
G1 X87.169 Y94.712 E.03561
M73 P11 R3
G1 X86.268 Y94.042 E.0352
G1 X85.608 Y93.31 E.0309
G1 X85.005 Y92.302 E.03683
G1 X84.625 Y91.123 E.03884
G1 X84.505 Y90.225 E.02841
G1 X84.548 Y89.273 E.02988
G1 X84.889 Y87.973 E.04214
G1 X85.283 Y87.177 E.02785
G1 X85.897 Y86.337 E.03262
G1 X86.36 Y85.899 E.01998
M204 S1250
G1 X86.618 Y86.17 F9000
M204 S800
G1 F900
G1 X86.748 Y86.047 E.00561
G1 X87.379 Y85.597 E.0243
G1 X88.435 Y85.124 E.03628
G1 X89.23 Y84.937 E.02561
G1 X90.561 Y84.911 E.04174
G1 X91.767 Y85.19 E.03881
G1 X92.669 Y85.627 E.03143
G1 X93.501 Y86.272 E.03301
G1 X94.182 Y87.036 E.03209
G1 X94.603 Y87.753 E.02607
G1 X94.898 Y88.512 E.02553
G1 X95.086 Y89.403 E.02855
G1 X95.086 Y90.597 E.03744
G1 X94.787 Y91.831 E.03981
G1 X94.312 Y92.763 E.0328
G1 X93.807 Y93.426 E.02613
G1 X92.843 Y94.237 E.0395
G1 X91.883 Y94.763 E.03432
G1 X90.938 Y95.033 E.03082
G1 X89.886 Y95.124 E.03311
G1 X89.134 Y95.051 E.02369
M73 P12 R3
G1 X88.315 Y94.839 E.02653
G1 X87.379 Y94.399 E.03243
G1 X86.528 Y93.768 E.03322
G1 X85.918 Y93.096 E.02846
G1 X85.341 Y92.131 E.03525
G1 X84.989 Y91.024 E.03642
G1 X84.881 Y90.194 E.02624
G1 X84.923 Y89.316 E.02756
G1 X85.235 Y88.124 E.03863
G1 X85.596 Y87.386 E.02576
G1 X86.164 Y86.603 E.03033
G1 X86.575 Y86.212 E.01779
M204 S1250
; printing object hridelka1.stl id:0 copy 0
G1 E-2.24 F4200
;WIPE_START
G1 F7200
G1 X86.748 Y86.047 E-.13248
G1 X87.379 Y85.597 E-.42949
G1 X88.034 Y85.303 E-.39803
;WIPE_END
G1 Z.4 F9000
G1 X89.984 Y87.405
G1 Z.2
G1 E3.2 F2400
M204 S800
;TYPE:External perimeter
;WIDTH:0.38292
G1 F900
G1 X90.369 Y87.447 E.01095
G1 X90.871 Y87.559 E.01454
G1 X91.329 Y87.784 E.01443
G1 X91.639 Y87.995 E.0106
G1 X92.155 Y88.557 E.02157
G1 X92.475 Y89.223 E.02089
G1 X92.601 Y90 E.02225
G1 X92.459 Y90.821 E.02356
G1 X92.22 Y91.331 E.01592
G1 X92.01 Y91.639 E.01054
G1 X91.529 Y92.075 E.01835
G1 X91.219 Y92.281 E.01052
G1 X90.787 Y92.474 E.01338
G1 X89.992 Y92.6 E.02276
G1 X89.494 Y92.536 E.01419
G1 X89.125 Y92.442 E.01077
G1 X88.469 Y92.087 E.02109
G1 X87.998 Y91.643 E.0183
G1 X87.783 Y91.326 E.01083
G1 X87.536 Y90.787 E.01676
G1 X87.406 Y90.026 E.02183
G1 X87.449 Y89.622 E.01149
G1 X87.563 Y89.126 E.01439
G1 X87.917 Y88.462 E.02127
M73 P13 R3
G1 X88.267 Y88.088 E.01448
G1 X88.671 Y87.788 E.01423
G1 X89.239 Y87.525 E.0177
G1 X89.925 Y87.415 E.01964
M204 S1250
G1 X90.185 Y87.736 F9000
; stop printing object hridelka1.stl id:0 copy 0
M106 S84.15
;LAYER_CHANGE
;Z:0.4
;HEIGHT:0.2
;BEFORE_LAYER_CHANGE
G92 E0.0
;0.4


G1 E-2.24 F4200
;WIPE_START
G1 F7200
G1 X90.369 Y87.447 E-.24669
G1 X90.871 Y87.559 E-.28503
G1 X91.329 Y87.784 E-.28278
G1 X91.546 Y87.932 E-.1455
;WIPE_END
G1 Z.4 F9000
;AFTER_LAYER_CHANGE
;0.4
G1 Z.6
G1 X93.794 Y85.082
G1 Z.4
G1 E3.2 F2400
;TYPE:Skirt/Brim
;WIDTH:0.42
G1 F900
G1 X94.337 Y85.51 E.02168
G1 X95.09 Y86.362 E.03565
G1 X95.64 Y87.3 E.03409
G1 X95.991 Y88.223 E.03096
G1 X96.214 Y89.311 E.03482
G1 X96.214 Y90.689 E.04321
G1 X95.852 Y92.213 E.04911
G1 X95.243 Y93.406 E.042
G1 X94.607 Y94.226 E.03254
G1 X93.559 Y95.112 E.04303
G1 X92.326 Y95.803 E.04432
G1 X91.176 Y96.139 E.03756
G1 X89.831 Y96.254 E.04233
G1 X88.966 Y96.17 E.02725
G1 X87.958 Y95.912 E.03262
G1 X86.75 Y95.339 E.04192
G1 X85.749 Y94.589 E.03922
G1 X84.987 Y93.739 E.03579
G1 X84.334 Y92.645 E.03995
M73 P14 R3
G1 X83.897 Y91.32 E.04375
G1 X83.753 Y90.286 E.03273
G1 X83.803 Y89.152 E.03559
G1 X84.198 Y87.671 E.04806
G1 X84.655 Y86.759 E.03198
G1 X85.135 Y86.064 E.02648
G1 X85.967 Y85.222 E.03711
G1 X86.801 Y84.625 E.03216
G1 X88.079 Y84.05 E.04394
G1 X89.119 Y83.812 E.03345
G1 X90.653 Y83.783 E.04811
G1 X92.173 Y84.135 E.04892
G1 X93.271 Y84.669 E.03828
G1 X93.747 Y85.044 E.019
G1 X93.516 Y85.338 F9000
G1 F900
G1 X94.058 Y85.764 E.02161
G1 X94.787 Y86.587 E.03447
G1 X95.295 Y87.451 E.03143
G1 X95.625 Y88.315 E.029
G1 X95.838 Y89.341 E.03286
G1 X95.838 Y90.659 E.04132
G1 X95.497 Y92.085 E.04597
M73 P14 R2
G1 X94.932 Y93.192 E.03897
G1 X94.34 Y93.959 E.03038
G1 X93.32 Y94.82 E.04185
G1 X92.155 Y95.466 E.04177
G1 X91.097 Y95.771 E.03452
G1 X89.849 Y95.878 E.03927
M73 P15 R2
G1 X89.022 Y95.797 E.02605
G1 X88.077 Y95.555 E.03059
G1 X86.959 Y95.025 E.03879
G1 X86.009 Y94.316 E.03717
G1 X85.298 Y93.525 E.03335
G1 X84.669 Y92.474 E.0384
G1 X84.261 Y91.222 E.04129
G1 X84.129 Y90.255 E.0306
G1 X84.178 Y89.198 E.03318
G1 X84.543 Y87.822 E.04464
G1 X84.969 Y86.968 E.02992
G1 X85.626 Y86.075 E.03476
G1 X86.298 Y85.441 E.02897
G1 X86.993 Y84.949 E.0267
G1 X88.19 Y84.41 E.04116
G1 X89.156 Y84.187 E.03108
G1 X90.623 Y84.159 E.04601
G1 X92.038 Y84.486 E.04554
G1 X93.07 Y84.988 E.03598
G1 X93.469 Y85.301 E.0159
G1 X93.239 Y85.596 F9000
G1 F900
G1 X93.78 Y86.018 E.02151
G1 X94.485 Y86.812 E.03329
G1 X94.949 Y87.602 E.02873
G1 X95.264 Y88.421 E.02751
G1 X95.462 Y89.372 E.03046
G1 X95.462 Y90.628 E.03938
G1 X95.142 Y91.958 E.04289
G1 X94.622 Y92.977 E.03587
G1 X94.073 Y93.693 E.02829
M73 P16 R2
G1 X93.082 Y94.529 E.04065
G1 X92.034 Y95.108 E.03754
G1 X91.018 Y95.402 E.03316
G1 X89.868 Y95.501 E.03619
G1 X89.078 Y95.424 E.02489
G1 X88.196 Y95.197 E.02856
G1 X87.169 Y94.712 E.03561
G1 X86.268 Y94.042 E.0352
G1 X85.608 Y93.31 E.0309
G1 X85.005 Y92.302 E.03683
G1 X84.625 Y91.123 E.03884
G1 X84.505 Y90.225 E.02841
G1 X84.548 Y89.273 E.02988
G1 X84.889 Y87.973 E.04214
G1 X85.283 Y87.177 E.02785
G1 X85.897 Y86.337 E.03262
G1 X86.523 Y85.744 E.02704
G1 X87.186 Y85.273 E.0255
G1 X88.332 Y84.761 E.03936
G1 X89.193 Y84.562 E.02771
G1 X90.592 Y84.535 E.04387
G1 X91.902 Y84.838 E.04216
G1 X92.87 Y85.307 E.03373
G1 X93.192 Y85.559 E.01282
G1 X92.963 Y85.855 F9000
G1 F900
G1 X93.501 Y86.272 E.02134
G1 X94.182 Y87.036 E.03209
G1 X94.603 Y87.753 E.02607
G1 X94.898 Y88.512 E.02553
G1 X95.086 Y89.403 E.02855
G1 X95.086 Y90.597 E.03744
G1 X94.787 Y91.831 E.03981
M73 P17 R2
G1 X94.312 Y92.763 E.0328
G1 X93.807 Y93.426 E.02613
G1 X92.843 Y94.237 E.0395
G1 X91.883 Y94.763 E.03432
G1 X90.938 Y95.033 E.03082
G1 X89.886 Y95.124 E.03311
G1 X89.134 Y95.051 E.02369
G1 X88.315 Y94.839 E.02653
G1 X87.379 Y94.399 E.03243
G1 X86.528 Y93.768 E.03322
G1 X85.918 Y93.096 E.02846
G1 X85.341 Y92.131 E.03525
G1 X84.989 Y91.024 E.03642
G1 X84.881 Y90.194 E.02624
G1 X84.923 Y89.316 E.02756
G1 X85.235 Y88.124 E.03863
G1 X85.596 Y87.386 E.02576
G1 X86.164 Y86.603 E.03033
G1 X86.748 Y86.047 E.02528
G1 X87.379 Y85.597 E.0243
G1 X88.435 Y85.124 E.03628
G1 X89.23 Y84.937 E.02561
G1 X90.561 Y84.911 E.04174
G1 X91.767 Y85.19 E.03881
G1 X92.669 Y85.627 E.03143
G1 X92.915 Y85.818 E.00977
; printing object hridelka1.stl id:0 copy 0
G1 E-2.24 F4200
;WIPE_START
G1 F7200
G1 X93.501 Y86.272 E-.4108
G1 X94.16 Y87.012 E-.5492
;WIPE_END
G1 Z.6 F9000
G1 X92.6 Y90.025
G1 Z.4
G1 E3.2 F2400
M204 S800
;TYPE:External perimeter
;WIDTH:0.38292
M73 P18 R2
G1 F900
G1 X92.459 Y90.821 E.02285
G1 X92.22 Y91.331 E.01592
G1 X92.01 Y91.639 E.01054
G1 X91.53 Y92.075 E.01833
G1 X91.235 Y92.272 E.01003
G1 X90.787 Y92.474 E.01389
G1 X89.993 Y92.6 E.02273
G1 X89.494 Y92.536 E.01422
G1 X89.12 Y92.44 E.01092
G1 X88.469 Y92.087 E.02094
G1 X87.998 Y91.643 E.0183
G1 X87.78 Y91.322 E.01097
G1 X87.536 Y90.787 E.01662
G1 X87.406 Y90.026 E.02183
G1 X87.45 Y89.617 E.01163
G1 X87.563 Y89.126 E.01424
G1 X87.917 Y88.463 E.02125
G1 X88.27 Y88.085 E.01462
G1 X88.667 Y87.789 E.014
G1 X89.222 Y87.528 E.01734
G1 X89.984 Y87.405 E.02182
G1 X90.355 Y87.445 E.01055
G1 X90.867 Y87.557 E.01482
G1 X91.325 Y87.782 E.01443
G1 X91.639 Y87.995 E.01073
G1 X92.15 Y88.549 E.02131
G1 X92.475 Y89.223 E.02115
G1 X92.596 Y89.965 E.02125
M204 S1250
G1 X92.25 Y90.219 F9000
; stop printing object hridelka1.stl id:0 copy 0
M106 S170.85
;LAYER_CHANGE
;Z:0.6
;HEIGHT:0.2
;BEFORE_LAYER_CHANGE
G92 E0.0
;0.6


G1 E-2.24 F4200
;WIPE_START
G1 F7200
G1 X92.459 Y90.821 E-.4804
G1 X92.22 Y91.331 E-.31212
G1 X92.05 Y91.581 E-.16748
;WIPE_END
G1 Z.6 F9000
;AFTER_LAYER_CHANGE
;0.6
G1 Z.8
G1 X94.927 Y93.813
G1 Z.6
G1 E3.2 F2400
;TYPE:Skirt/Brim
;WIDTH:0.42
G1 F900
G1 X94.607 Y94.226 E.01638
G1 X93.559 Y95.112 E.04303
G1 X92.326 Y95.803 E.04432
G1 X91.176 Y96.139 E.03756
G1 X89.831 Y96.254 E.04233
G1 X88.966 Y96.17 E.02725
G1 X87.958 Y95.912 E.03262
M73 P19 R2
G1 X86.75 Y95.339 E.04192
G1 X85.749 Y94.589 E.03922
G1 X84.987 Y93.739 E.03579
G1 X84.334 Y92.645 E.03995
G1 X83.897 Y91.32 E.04375
G1 X83.753 Y90.286 E.03273
G1 X83.803 Y89.152 E.03559
G1 X84.198 Y87.671 E.04806
G1 X84.655 Y86.759 E.03198
G1 X85.135 Y86.064 E.02648
G1 X85.967 Y85.222 E.03711
G1 X86.801 Y84.625 E.03216
G1 X88.079 Y84.05 E.04394
G1 X89.119 Y83.812 E.03345
G1 X90.653 Y83.783 E.04811
G1 X92.173 Y84.135 E.04892
G1 X93.271 Y84.669 E.03828
G1 X94.337 Y85.51 E.04257
G1 X95.09 Y86.362 E.03565
G1 X95.64 Y87.3 E.03409
G1 X95.991 Y88.223 E.03096
G1 X96.214 Y89.311 E.03482
G1 X96.214 Y90.689 E.04321
G1 X95.852 Y92.213 E.04911
G1 X95.243 Y93.406 E.042
G1 X94.964 Y93.765 E.01426
M73 P20 R2
G1 X94.667 Y93.536 F9000
G1 F900
G1 X94.34 Y93.959 E.01676
G1 X93.32 Y94.82 E.04185
G1 X92.155 Y95.466 E.04177
G1 X91.097 Y95.771 E.03452
G1 X89.849 Y95.878 E.03927
G1 X89.022 Y95.797 E.02605
G1 X88.077 Y95.555 E.03059
G1 X86.959 Y95.025 E.03879
G1 X86.009 Y94.316 E.03717
G1 X85.298 Y93.525 E.03335
G1 X84.669 Y92.474 E.0384
G1 X84.261 Y91.222 E.04129
G1 X84.129 Y90.255 E.0306
G1 X84.178 Y89.198 E.03318
G1 X84.543 Y87.822 E.04464
G1 X84.969 Y86.968 E.02992
G1 X85.626 Y86.075 E.03476
G1 X86.298 Y85.441 E.02897
G1 X86.993 Y84.949 E.0267
G1 X88.19 Y84.41 E.04116
G1 X89.156 Y84.187 E.03108
G1 X90.623 Y84.159 E.04601
G1 X92.038 Y84.486 E.04554
G1 X93.07 Y84.988 E.03598
G1 X94.058 Y85.764 E.03939
G1 X94.787 Y86.587 E.03447
G1 X95.295 Y87.451 E.03143
G1 X95.625 Y88.315 E.029
M73 P21 R2
G1 X95.838 Y89.341 E.03286
G1 X95.838 Y90.659 E.04132
G1 X95.497 Y92.085 E.04597
G1 X94.932 Y93.192 E.03897
G1 X94.703 Y93.488 E.01173
G1 X94.405 Y93.26 F9000
G1 F900
G1 X94.073 Y93.693 E.01711
G1 X93.082 Y94.529 E.04065
G1 X92.034 Y95.108 E.03754
G1 X91.018 Y95.402 E.03316
G1 X89.868 Y95.501 E.03619
G1 X89.078 Y95.424 E.02489
G1 X88.196 Y95.197 E.02856
G1 X87.169 Y94.712 E.03561
G1 X86.268 Y94.042 E.0352
G1 X85.608 Y93.31 E.0309
G1 X85.005 Y92.302 E.03683
G1 X84.625 Y91.123 E.03884
G1 X84.505 Y90.225 E.02841
G1 X84.548 Y89.273 E.02988
G1 X84.889 Y87.973 E.04214
G1 X85.283 Y87.177 E.02785
G1 X85.897 Y86.337 E.03262
G1 X86.523 Y85.744 E.02704
G1 X87.186 Y85.273 E.0255
G1 X88.332 Y84.761 E.03936
G1 X89.193 Y84.562 E.02771
G1 X90.592 Y84.535 E.04387
G1 X91.902 Y84.838 E.04216
G1 X92.87 Y85.307 E.03373
G1 X93.78 Y86.018 E.03621
M73 P22 R2
G1 X94.485 Y86.812 E.03329
G1 X94.949 Y87.602 E.02873
G1 X95.264 Y88.421 E.02751
G1 X95.462 Y89.372 E.03046
G1 X95.462 Y90.628 E.03938
G1 X95.142 Y91.958 E.04289
G1 X94.622 Y92.977 E.03587
G1 X94.442 Y93.212 E.00928
G1 X94.143 Y92.984 F9000
G1 F900
G1 X93.807 Y93.426 E.01741
G1 X92.843 Y94.237 E.0395
G1 X91.883 Y94.763 E.03432
G1 X90.938 Y95.033 E.03082
G1 X89.886 Y95.124 E.03311
G1 X89.134 Y95.051 E.02369
G1 X88.315 Y94.839 E.02653
G1 X87.379 Y94.399 E.03243
G1 X86.528 Y93.768 E.03322
G1 X85.918 Y93.096 E.02846
G1 X85.341 Y92.131 E.03525
G1 X84.989 Y91.024 E.03642
G1 X84.881 Y90.194 E.02624
G1 X84.923 Y89.316 E.02756
G1 X85.235 Y88.124 E.03863
G1 X85.596 Y87.386 E.02576
G1 X86.164 Y86.603 E.03033
G1 X86.748 Y86.047 E.02528
G1 X87.379 Y85.597 E.0243
G1 X88.435 Y85.124 E.03628
G1 X89.23 Y84.937 E.02561
G1 X90.561 Y84.911 E.04174
G1 X91.767 Y85.19 E.03881
G1 X92.669 Y85.627 E.03143
M73 P23 R2
G1 X93.501 Y86.272 E.03301
G1 X94.182 Y87.036 E.03209
G1 X94.603 Y87.753 E.02607
G1 X94.898 Y88.512 E.02553
G1 X95.086 Y89.403 E.02855
G1 X95.086 Y90.597 E.03744
G1 X94.787 Y91.831 E.03981
G1 X94.312 Y92.763 E.0328
G1 X94.18 Y92.937 E.00685
; printing object hridelka1.stl id:0 copy 0
G1 E-2.24 F4200
;WIPE_START
G1 F7200
G1 X93.807 Y93.426 E-.34082
G1 X92.952 Y94.145 E-.61918
;WIPE_END
G1 Z.8 F9000
G1 X92.601 Y90.001
G1 Z.6
G1 E3.2 F2400
M204 S800
;TYPE:External perimeter
;WIDTH:0.38292
G1 F900
G1 X92.459 Y90.821 E.02353
G1 X92.22 Y91.331 E.01592
G1 X92.01 Y91.639 E.01054
G1 X91.53 Y92.076 E.01835
G1 X91.251 Y92.262 E.00948
G1 X90.787 Y92.474 E.01442
G1 X89.993 Y92.6 E.02273
G1 X89.495 Y92.536 E.01419
G1 X89.116 Y92.438 E.01107
G1 X88.469 Y92.087 E.02081
G1 X87.998 Y91.643 E.0183
G1 X87.778 Y91.318 E.0111
G1 X87.535 Y90.787 E.01651
G1 X87.406 Y90.026 E.02182
G1 X87.45 Y89.613 E.01174
G1 X87.563 Y89.126 E.01413
G1 X87.917 Y88.463 E.02125
G1 X88.274 Y88.082 E.01476
